assets/close-round.svg

<svg width="35" height="35" xmlns="http://www.w3.org/2000/svg"><path opacity=".5" fill="rgb( 255, 255, 255 )" d="M11.879 14l-5.439-5.439 2.121-2.121 5.439 5.439 5.439-5.439 2.121 2.121-5.439 5.439 5.439 5.439-2.121 2.121-5.439-5.439-5.439 5.439-2.121-2.121 5.439-5.439zm2.121 14c7.732 0 14-6.268 14-14s-6.268-14-14-14-14 6.268-14 14 6.268 14 14 14z"/></svg>

<svg width="35" height="35" xmlns="http://www.w3.org/2000/svg"><path opacity=".5" fill="rgb( 255, 255, 255 )" d="M11.88 14L6.44 8.56l2.12-2.12L14 11.88l5.44-5.44 2.12 2.12L16.12 14l5.44 5.44-2.12 2.12L14 16.12l-5.44 5.44-2.12-2.12L11.88 14zM14 28c7.732 0 14-6.268 14-14S21.732 0 14 0 0 6.268 0 14s6.268 14 14 14z"/></svg>
